X:1
T:Title
%%score 1 { 2 | 3 }
L:1/8
Q:1/4=100
M:6/8
K:Eb
V:1 treble nm="Grand Piano, Soprano"
V:2 bass nm="Choir Pad, God’s Way, Lida Leech 1911"
V:3 bass 
V:1
 G3 EFG | A3 G3 | F3 DG>F | E6 | G3 EFG | A3 G3 | F3 FFF | F6 | A3 AGF | G3 E3 | A3 AG_G | G6 | %12
w: By~Lida~Shivers~Leech * * *||||||||||||
 B3 BAG | A3 C3 | D3 DG>F | E6 | [GB]3 [GB][EG][GB] | [Ac]3 [GB]3 | [FA]3 [FA][Ad][Ac] | %19
w: |||||||
 [Ac]3 [GB]3 | [Ge]3 [GB][EG]E | [Ad]3 [Ac]3 | [GB]3 [DA][DG][B,F] | [B,E]6- | [B,E]3 z3 |] %25
w: ||||||
V:2
 B,3 G,A,B, | C3 B,3 | A,3 A,B,>A, | G,6 | B,3 G,A,B, | C3 B,3 | D3 CDE | D6 | C3 C[K:bass]B,A, | %9
 B,3 G,3 | C3 CB,=A, | B,6 | _D3 DCB, | C3[K:bass] A,3 | B,3 B,B,>A, | G,6 | E3 EB,E | E3 E3 | %18
 D3 DFD | E3 E3 | B,3 EB,G, | A,3 E3 | E3 B,B,A, | G,6- | G,3 z3 |] %25
V:3
 E,6 | E,6 | B,,6 | E,6 | E,6 | E,6 | F,6 | B,,6 | B,,6 | E,6 | B,,6 | E,6 | E,6 | A,,6 | B,,6 | %15
 E,6 | E,3 E,E,E, | A,3 E,3 | B,3 B,B,B, | E,3 E,3 | E,3 E,E,E, | z3 A,3 | B,3 B,,B,,B,, | E,6- | %24
 E,3 z3 |] %25

